X: 1
T:Lord Dalhousie's -- Reel
M:C|
L:1/8
R:reel
B:Ryan's Mammoth Collection
Z:Contributed by Ray Davies,  ray:davies99.freeserve.co.uk
K:D
uf|\
d2fd A<A fd | egfe dBBe | d2 fd Agfe | dBAF D/D/D (Dd) |
d2fd A<A fd | egfe dBBe | d2 fd ecdB | AdAF D/D/D D   |]
uB|\
ADFA B2 Bd  | ABFA BEEB | ADFA BBdA  | BdAF D/D/D DB |
ADFA B2 Bd  | AdFA BEEB | AFGA Bcde  | fdAF D/D/D D |]
